!!!!SEGMENT: pl-wtm--r-2048--002-pc0_smietanski-emil-wladyslaw--fuga-a-tre-voci-pc0.krn
!!!cenid: 18xx:2033a
!!!COM: Śmietański, Emil Władysław
!!!COM-rismID: pe50041781
!!!CDT: 1845-1886
!!!CNT: Polish
!!!OTL: Fuga a tre voci
!!!PDT:
!!!AGN: Secular; Fugue
!!!SMS-siglum: PL-Wtm
!!!SMS-shelfmark: R 2048
!!!SMS-shelfwork: 002 W
!!!SMS-variant:
!!!SMS-altvar:
!!!NIFC-rismSourceID: 1001112690
!!!NIFC-rismChildID: 1001112690
!!!NIFC-islandoraID: pl-wtm:29692
!!!URL-pdf-islandora: https://repozytorium.nifc.pl/islandora/object/pl-wtm%3A29692/datastream/PDF/view
!!!URL-scan: https://polish.musicsources.pl/pl/lokalizacje/galeria/rekopisy/6539 @EN{Scan on Polish Music Sources Website} @PL{Skany w portalu Dziedzictwo Muzyki Polskiej w otwartym dostępie}
!!!IIIF:
!!!ONB-nifc: UWAGA: w zbiorze 1. Preludio i 2. Fuga a tre voci
!!!OMD: Commodo.
!!!AIN: 1 piano
!!!key:
**kern	**kern	**dynam
*part1	*part1	*part1
*staff2	*staff1	*
*Ipiano	*Ipiano	*
*I"[Piano]	*I"[Piano]	*
*clefF4	*clefG2	*
*k[b-e-]	*k[b-e-]	*
*g:	*g:	*
*M3/4	*M3/4	*
=1	=1	=1
*	*^	*
!	!LO:TX:a:i:t=skomponował Emil Smietanski w roku\n1879 w Baden.	!	!
4.G\	2.rb	2.rf	p
8F#X\L	.	.	.
8G\	.	.	.
8A\J	.	.	.
=2	=2	=2	=2
4B-\	2.rb	2.rf	.
4G\	.	.	.
4e-\	.	.	.
=3	=3	=3	=3
8d\L	2.rb	2.rf	.
8B-\	.	.	.
8c\	.	.	.
8A\	.	.	.
8B-\	.	.	.
8G\J	.	.	.
=4	=4	=4	=4
8A\L	2.rb	2.rf	.
8G\	.	.	.
8F#X\	.	.	.
8En\	.	.	.
8F#\	.	.	.
8D\J	.	.	.
=5	=5	=5	=5
8G\L	2.r	4.d\	.
8B-\	.	.	.
8A\	.	.	.
8G\	.	8c#X\L	.
8F\	.	8d\	.
8En\J	.	8en\J	.
=6	=6	=6	=6
8D\L	2.rdd	4f\	.
8En\	.	.	.
8F\	.	4d\	.
8F#X\	.	.	.
8G\	.	4b-\	.
8d\J	.	.	.
!!LO:LB:g=original
=7	=7	=7	=7
8c#X\L	2.rdd	8a\L	.
8d\	.	8f\	.
8Bn\	.	8g\	.
8c#\	.	8en\	.
8d\	.	8f\	.
8F\J	.	8d\J	.
=8	=8	=8	=8
8G\L	2.rdd	8en\L	.
8G#X\	.	8d\	.
8A\	.	8c#X\	.
8Gn\	.	8Bn\	.
8F\	.	8c#\	.
8En\J	.	8A\J	.
=9	=9	=9	=9
8F\L	2.rdd	8d\L	.
8D\	.	8Bn\	.
8E-\	.	8c\	.
8c\	.	8g\	.
8D\	.	8f#X\	.
8B-\J	.	8g\J	.
=10	=10	=10	=10
8c\L	2.rdd	8e-\L	.
8B-\	.	8d\	.
8A\	.	8c\	.
8G\	.	8B-\	.
8A\	.	8c\	.
8F#X\J	.	8d\J	.
=11	=11	=11	=11
!	!	!	!LO:DY:a:t=mf.
8G\L	4.g/	8B-\L	mf
8A\	.	8c\J	.
8B-\	.	4.d\	.
8c\	8f#X/L	.	.
8B-\	8g/	.	.
8A\J	8a/J	8f#\	.
=12	=12	=12	=12
8G\L	4b-/	4g\	.
8F\	.	.	.
8E-\	4g/	4B-\	.
8D\	.	.	.
8C\	4ee-/	[<4g\	.
8c\J	.	.	.
=13	=13	=13	=13
8B-\L	8dd/L	4g\]	.
8d\	8b-/	.	.
8A\	8cc/	4f#X\	.
8c\	8a/	.	.
8G\	8b-/	8g\L	.
8B-\J	8g/J	8d\J	.
!!LO:LB:g=original
=14	=14	=14	=14
8c\L	8a/L	8e-\L	.
8B-\	8g/	8d\J	.
*	*	*2\right	*
8A\	8f#X/	2c\	.
8G\	8en/	.	.
8A\	8f#/	.	.
8F#X\J	8d/J	.	.
=15	=15	=15	=15
8G\L	4g/	8Bn\L	.
8E-\	.	8c\	.
8F\	4r	8A\	.
8D\	.	8B\	.
8E-\	4r	8c\	<
8C\J	.	8e-\J	.
=16	=16	=16	=16
8D\L	4r	8f\L	.
8C\	.	8e-\	.
8BBn\	4r	8d\	.
8AA\	.	8c\	.
8BB\	4g/	8d\	.
8GG\J	.	8Bn\J	.
=17	=17	=17	=17
4C\	8ee-/L	8c</L	.
.	8cc/	8e-</	.
4r	8dd/	8f</	.
.	8bn/	8g</	.
4r	8cc/	8e-</	.
.	8a/J	8f</J	.
=18	=18	=18	=18
4r	8b-/L	8d</L	.
.	8a/	8c</	>
4r	8g/	8B-</	.
.	8f/	8A</	.
4C\	8g/	8B-</	.
.	8en/J	8G</J	.
=19	=19	=19	=19
8F\L	4f/	8A\L	.
8D\	.	8B-\	.
8E-\	4r	8G\	.
8C\	.	8A\	.
8D\	4r	8B-\	.
8BB-\J	.	8d\J	.
!!LO:LB:g=original
=20	=20	=20	=20
8C\L	4r	8e-\L	.
8BB-\	.	8d\	.
8AA\	4r	8c\	.
8GG\	.	8B-\	.
8AA\	4f/	8c\	.
8FF\J	.	8A\J	.
=21	=21	=21	=21
!	!	!	!LO:DY:t=f.
4.BB-\	8d/L	8B-\L	f
.	8e-/J	8c\	.
.	4f/	8d\	.
8AA\L	.	8F\	.
8BB-\	4f/	8G\	.
8C\J	.	8A\J	.
=22	=22	=22	=22
4D\	8f/L	4B-\	.
.	8en/	.	.
4BB-\	8f/	4d\	.
.	8dd/	.	.
4G\	8cc/	4e\	.
.	8b-/J	.	.
=23	=23	=23	=23
8F\L	8a/L	[2.f\	.
8D\	8b-/	.	.
8E-\	8cc/	.	.
8C\	8b-/	.	.
8D\	8cc/	.	.
8BB-\J	8dd/J	.	.
=24	=24	=24	=24
!	!LO:N:vis=2	!	!
8C\L	2.ee-/	2.f\]	.
8BB-\	.	.	.
8AA\	.	.	.
8GG\	.	.	.
8AA\	.	.	.
8FF\J	.	.	.
=25	=25	=25	=25
8BB-\L	4dd/	4.f\	.
8AA\	.	.	.
8BB-\	2cc/	.	.
8B-\	.	8en\L	.
8A\	.	8f\	.
8G\J	.	8g\J	.
=26	=26	=26	=26
4F\	8cc/L	4a\	.
.	8dd/	.	.
4A\	8cc/	4f\	.
.	8aa/	.	.
4Bn\	8gg/	4dd\	.
.	8ff/J	.	.
!!LO:LB:g=original
=27	=27	=27	=27
*2\right	*	*	*
[<2.c\	8een/L	8cc\L	.
.	8ff/	8a\	.
.	8dd/	8b-\	.
.	8ee/	8g\	.
.	8cc/	8a\	.
.	8dd/J	8f\J	.
=28	=28	=28	=28
8c\L]	2.b-/	8g\L	.
8d\	.	8f\	.
8c\	.	8en\	.
8B-\	.	8d\	.
8A\	.	8e\	.
8G\J	.	8c\J	.
=29	=29	=29	=29
8F\L	4.a/	2.f\	.
8A\	.	.	.
8c\	.	.	.
8B-\	8g/L	.	.
8A\	8a/	.	.
8G\J	8b-/J	.	.
*	*v	*v	*
=30	=30	=30
*^	*	*
4A/	8F\L	4cc/	.
.	8En\	.	.
4r	8F\	4a/	.
.	8G\	.	.
4r	8F\	4ff/	.
.	8E-X\J	.	.
=31	=31	=31	=31
4.Bn/	2.D\	8ff/L	>
.	.	8gg/J	.
.	.	[>2ff/	.
8A/L	.	.	.
8B/	.	.	.
8c/J	.	.	.
=32	=32	=32	=32
4d/	4GG\	8ff/L]	.
.	.	8aa-X/	.
4Bn/	4ryy	8gg/	.
.	.	8ff/	.
4g/	4ryy	8ee-/	.
.	.	8dd/J	.
*v	*v	*	*
=33	=33	=33
*	*^	*
4.C\	4ee-/	8g\L	p
.	.	8c\	.
.	4g/	8e-\	.
8BBn\L	.	8d\	.
8C\	4g/	8e-\	.
8D\J	.	8Bn\J	.
!!LO:PB:g=original
=34	=34	=34	=34
4E-\	8g/L	4c\	.
.	8a-X/	.	.
4C\	8g/	4e-\	.
.	8cc/	.	.
4A-X\	8f/	4c\	.
.	8f#X/J	.	.
=35	=35	=35	=35
8G\L	4g/	8Bn\L	.
8E-\	.	8c\	.
8F\	4r	8d\	.
8D\	.	8B\	.
8E-\	4r	8c\	.
8C\J	.	8e-\J	.
=36	=36	=36	=36
8D\L	4.gg/	8f\L	.
8C\J	.	8e-\J	.
2BBn\	.	2d</	.
.	8aa-X/L	.	.
.	8gg/	.	.
.	8ff/J	.	.
=37	=37	=37	=37
8C\L	4ee-/	4g\	.
8c\	.	.	.
8Bn\	4gg/	4rf	.
8c\	.	.	.
8d\	4bn/	4r	.
8f\J	.	.	.
=38	=38	=38	=38
8e-\L	2cc/	4.g\	.
8d\J	.	.	.
4e-\	.	.	.
.	.	8a-X\L	.
4Bn\	4dd/	8g\	.
.	.	8f\J	.
=39	=39	=39	=39
8c\L	2ee-/	4e-\	.
8Bn\	.	.	.
8c\	.	4g\	.
8G\	.	.	.
8F\	4dd/	4Bn\	.
8G\J	.	.	.
=40	=40	=40	=40
4E-\	4cc/	8c\L	.
.	.	8e-\	.
4BBn\	4g/	8d\	.
.	.	8f\	.
8C\L	4r	8e-\	.
8BB-X\J	.	8g\J	.
!!LO:LB:g=original
=41	=41	=41	=41
8AA-X\L	2rgg	8f\L	.
8C\	.	8g\	.
8F\	.	8a-X\	.
8G\	.	8b-\	.
8F\	4r	8a-\	.
!	!	!LO:TX:b:i:t=cresc. _ :problem=dynamics with extension lines	!LO:HP:b:i:t=cresc.:ext=ud
8A-X\J	.	8cc\J	<
=42	=42	=42	=42
4BB-\	8aa-X/L	4dd\	.
.	8ff/	.	.
4r	8gg/	8ee-\L	.
.	8ee-/	8g\	.
4r	8ff/	8a-X\	.
.	8dd/J	8b-\J	[[
=43	=43	=43	=43
2.E- 2.EE-/	8ee-/L	8g\L	f
.	8gg/	8b-\	.
.	8ff/	8a-X\	.
.	8ee-/	8cc\	.
.	8dd/	8b-\	.
.	8cc/J	8a-\J	.
=44	=44	=44	=44
4D 4DD/	4.b-/	8f\L	.
.	.	8f#X\J	.
4E- 4EE-/	.	4g\	.
.	8cc/	.	.
4F 4FF/	4b-/	8a-X\L	.
.	.	8d\J	.
=45	=45	=45	=45
2G 2GG/	8b-/L	2e-\	.
.	8an/	.	.
.	8b-/	.	.
.	8cc/	.	.
[>4E- [<4EE-/	8b-/	4g\	.
.	8ee-/J	.	.
=46	=46	=46	=46
4E-] 4EE-/]	8g/L	4B-\	.
.	8a-X/	.	.
2c 2C\	8g/	8e-\L	.
.	8f/	8d\J	.
.	8g/	4e-\	.
.	8a-/J	.	.
!!LO:LB:g=original
=47	=47	=47	=47
4B- 4BB-\	8g/L	4d\	.
.	8f/J	.	.
4G 4GG\	4.b-/	8e-\L	.
.	.	8d\J	.
4A-X 4AA-X\	.	4c\	.
.	8e-/	.	.
=48	=48	=48	=48
4F 4FF\	4.a-X/	8d\L	.
.	.	8c\J	.
4G 4GG\	.	4B-\	.
.	8d/	.	.
4E- 4EE-\	4g/	8c\L	.
.	.	8B-\J	.
=49	=49	=49	=49
4F 4FF\	8c/L	4.A\	.
.	8g/J	.	.
4E- 4EE-\	4.f/	.	.
.	.	8c\	.
4D 4DD\	.	4B-\	.
.	8f#X/	.	.
=50	=50	=50	=50
4C 4CC\	8g/L	4e-\	.
.	8a/	.	.
4D 4DD\	8cc/	4f\	.
.	8b-/	.	.
4BB- 4BBB-\	8a-X/	4d\	.
.	8b-/J	.	.
=51	=51	=51	=51
4.E- 4.EE-\	4.g/	8e-\L	.
.	.	8B-\	.
.	.	8e-\	.
8A-X\L	8f/L	8d\	.
8G\	8g/	8e-\	>
8F\J	8a-X/J	8f\J	.
=52	=52	=52	=52
8E-\L	4b-/	4g\	.
8F\	.	.	.
8E-\	4g/	4rc	.
8D\	.	.	.
8C\	4ee-/	4rc	.
8FF#X\J	.	.	.
*	*v	*v	*
!!LO:LB:g=original
=53	=53	=53
*^	*	*
4.B-/	4GG\	8dd/L	.
.	.	8ee-/J	.
.	8G\L	4.dd/	.
8A/L	8F#X\	.	.
8B-/	8G\	.	.
8c/J	8A\J	8ff#X/	.
=54	=54	=54	=54
4d/	4B-\	8gg/L	.
.	.	8ff#X/	.
4B-/	4E-\	8gg/	.
.	.	8g/	.
4g/	4e-\	8b-/	.
.	.	8cc/J	.
=55	=55	=55	=55
!	!	!LO:TUP:a:problem=klamra łukowa	!
8f/L	4.B-\	12dd/L	p
.	.	12ee-/	.
8d/	.	.	.
.	.	12dd/J	.
8e-/	.	2ff/	.
8c/	8A\	.	.
8d/	8B-\L	.	.
8B-/J	8D\J	.	.
=56	=56	=56	=56
8c/L	2.C\	4ee-/	.
8B-/	.	.	.
8A/	.	4r	.
8G/	.	.	.
8A/	.	4r	.
8F#X/J	.	.	.
=57	=57	=57	=57
4G/	8BB-\L	8dd/L	.
.	8D\	8b-/	.
2d>\	8G\	8cc/	.
.	8F#X\	8a/	.
.	8G\	8b-/	.
.	8B-\J	8g/J	.
*v	*v	*	*
=58	=58	=58
*	*^	*
4D\	8a/L	2.c\	.
.	8g/	.	.
4r	8f#X/	.	.
.	8en/	.	.
4r	8f#/	.	.
.	8d/J	.	.
!!LO:LB:g=original
=59	=59	=59	=59
!	!LO:TUP:a:problem=klamra łukowa	!	!
4.GG\	12g/L	4.B-\	f
.	12a/	.	.
.	12b-/J	.	.
.	4d/	.	.
8FF#X\L	.	8A\L	.
8GG\	4d/	8G\	.
8AA\J	.	8F#X\J	.
=60	=60	=60	=60
4BB-\	4.d/	8G\L	.
.	.	8A\J	.
4GG\	.	4B-\	.
.	8e-/L	.	.
4E-\	8c/	4G\	.
.	8c#X/J	.	.
=61	=61	=61	=61
8D\L	4d/	8F#X\L	.
8BB-\	.	8G\	.
8C\	4r	8A\	.
8AA\	.	8G\	.
8BB-\	4r	8A\	.
8GG\J	.	8B-\J	.
=62	=62	=62	=62
8AA\L	4.dd/	8c\L	.
8GG\J	.	8B-\J	.
2FF#X\	.	2A</	.
.	8ee-/L	.	.
.	8dd/	.	.
.	8cc/J	.	.
=63	=63	=63	=63
4GG\	4b-/	8B-\L	.
.	.	8d\	.
4B-\	4dd/	8g\	.
.	.	8d\	.
4A\	4f#X/	8c\	.
.	.	8d\J	.
=64	=64	=64	=64
4.G\	8g/L	4B-\	.
.	8b-/	.	.
.	8a/	4r	.
8F#X\L	8cc/	.	.
8G\	8b-/	4r	.
8Fn\J	8dd/J	.	.
*	*v	*v	*
!!LO:LB:g=original
=65	=65	=65
*^	*	*
4.G/	4E-\	8cc/L	.
.	.	8bn/	.
.	[<2D\	8cc/	.
8F#X/L	.	8a/	.
!	!	!LO:SIC:v:s=8b-	!
8G/	.	8b/	.
8A/J	.	8f#X/J	.
=66	=66	=66	=66
4B-/	4D\]	8g/L	.
.	.	8f#X/	.
4G/	8E-\L	8g/	.
.	8D\J	8b-/	.
4e->\	4C\	8a/	.
.	.	8g/J	.
*v	*v	*	*
=67	=67	=67
*	*^	*
[<2.D\	8f#X/L	8d\L	.
.	8g/	8B-\	.
.	8en/	8c\	.
.	8f#/	8A\	.
.	8g/	8B-\	.
.	8B-/J	8G\J	.
=68	=68	=68	=68
4D\]	8c/L	8A\L	.
.	8B-/J	8G\J	.
*	*clefF4	*	*
4DD\	4A/	8F#X\L	.
.	.	8En\	.
4C\	4d/	8F#\	.
.	.	8D\J	.
=69	=69	=69	=69
*	*clefG2	*clefG2	*
8BBn\L	4f/	2.G\	.
!	!	!LO:TX:b:i:t=dim...:problem=dynamics with extension dots	!LO:HP:b:i:t=dim:ext=ut
8D\	.	.	>
8C\	8e-/L	.	.
8E-\	8c/	.	.
8D\	8Bn/	.	.
8F\J	8d/J	.	.
=70	=70	=70	=70
4E-\	4c/	8G\L	]
.	.	8A\	.
8D\L	4.f/	8B-\	.
8BB-\	.	8d\	.
8AA\	.	8c\	.
8C\J	8e-/	8A\J	.
!!LO:LB:g=original
=71	=71	=71	=71
4BB-\	8d/L	8B-\L	.
.	8f/	8d\J	.
4.E-\	8e-/	4c\	.
.	8d/	.	.
.	8c/	[<4G\	.
8D\	8B-/J	.	.
=72	=72	=72	=72
8C\L	2A/	4G\]	.
8E-\	.	.	.
8D\	.	4F#X\	.
8C\	.	.	.
8BB-\	4d/	4F#\	.
8AA\J	.	.	.
=73	=73	=73	=73
!	!	!	!LO:DY:a
4GG\	8B-/L	8G\L	p
.	8A/	8F#X\	.
!	!LO:TX:a:i:t=rit.	!	!
4D\	8B-/	8G\	.
.	8c/	8A\	.
4DD\	8d/	8B-\	.
.	8f#X/J	8A\J	.
=74	=74	=74	=74
!LO:TX:a:t=P:problem=w źródle "Fine" zapisane za ostatnim taktem	!	!	!
!LO:TX:a:i:t=Fine	!	!	!
2.D 2.GG 2.GGG\	2.g/	2.B-\	.
*	*v	*v	*
==	==	==
*-	*-	*-
!!!system-decoration: {(s1,s2)}
!!!RDF**dynam: < = "cresc", 'fontstyle="italics"
!!!RDF**dynam: > = "dim", 'fontstyle="italics"
!!!RDF**kern: > = above
!!!RDF**kern: < = below
!!!EED: Antoni Szymański
!!!EEV: 2021-06-06
!!!ENC: Andrzej Kubiczek
!!!END: 2021-05-16
!!!YEC: Copyright 2022 Narodowy Instytut Fryderyka Chopina (https://polishscores.org)
!!!YEM: License CC-BY-4.0 (https://creativecommons.org/licenses/by/4.0)
